X: 1
T: Woodbridge Strathspey
C: Ron Gonnella
R: strathspey
Z: 2006 John Chambers <jc:trillian.mit.edu>
S: printed MS of unknown origin
M: C
L: 1/16
K: D
A2 | "D"d4  d3A     FD3 D4  | "Em"G3F     E3D "A7"FE3 E4 | "D"d4  d3A FD3    D4  | "D"A3d "A7"ce3 "D"d6 :|
e2 | "D"f3e fa3 "Bm"f3e d3c |  "G"B3c "E7"d3e "A7"cA3 A4 | "D"f3e fa3 f3e "G"d3B | "D"A3d "A7"ce3 "D"d6 |]
e2 | "D"f3e fa3 "Bm"f3e d3c |  "G"B3c "E7"d3e "A7"cA3 A4 | "D"d4  d3A FD3    D4  | "D"A3d "A7"ce3 "D"d6 |]
